assets/icons/24px/outline/productivity-24px.svg

<svg width="24" height="24" viewBox="0 0 24 24" fill="none" xmlns="http://www.w3.org/2000/svg">
<path d="M6.7471 3.66471C7.11421 3.2521 7.07732 2.62001 6.66471 2.2529C6.2521 1.88579 5.62001 1.92268 5.2529 2.33529L6.7471 3.66471ZM2.57352 15.2885C2.73287 15.8173 3.29072 16.1168 3.81952 15.9575C4.34832 15.7981 4.64781 15.2403 4.48846 14.7115L2.57352 15.2885ZM4.48846 14.7115C3.67612 12.0158 3.5433 7.26561 6.7471 3.66471L5.2529 2.33529C1.42939 6.63271 1.64027 12.1916 2.57352 15.2885L4.48846 14.7115Z" fill="white"/>
<path d="M11.1608 12.0636L7.28517 16.7381C7.19701 16.8444 7.12671 16.9627 7.07669 17.0889L6.14629 19.436C5.79894 20.3123 6.82021 21.115 7.684 20.6447L10.0937 19.3327C10.2508 19.2472 10.3887 19.1343 10.5 19L20.5411 7.03808C21.0211 6.45919 20.9069 5.62508 20.2861 5.17505L19.3549 4.5C18.7341 4.04996 17.8418 4.15443 17.3618 4.73332L16.6046 5.64663C16.4846 5.79135 16.2615 5.81747 16.1063 5.70496L15.3597 5.16372C15.0493 4.9387 14.6031 4.99094 14.3631 5.28038L13 6.92444" stroke="white" stroke-width="2" stroke-linecap="round"/>
</svg>

<svg width="24" height="24" fill="none" xmlns="http://www.w3.org/2000/svg"><path d="M6.747 3.665a1 1 0 0 0-1.494-1.33l1.494 1.33zM2.574 15.289a1 1 0 0 0 1.914-.578l-1.914.578zm1.914-.578c-.812-2.695-.945-7.445 2.26-11.046l-1.495-1.33C1.429 6.633 1.64 12.192 2.573 15.29l1.915-.578z" fill="#fff"/><path d="M11.16 12.064l-3.875 4.674a1.3 1.3 0 0 0-.208.35l-.93 2.348c-.348.876.673 1.679 1.537 1.209l2.41-1.312A1.39 1.39 0 0 0 10.5 19L20.541 7.038c.48-.579.366-1.413-.255-1.863l-.931-.675c-.62-.45-1.513-.346-1.993.233l-.757.914a.372.372 0 0 1-.499.058l-.746-.541a.744.744 0 0 0-.997.116L13 6.924" stroke="#fff" stroke-width="2" stroke-linecap="round"/></svg>
